fs/cloud_link_16_filled.svg

<svg viewBox="0 0 16 16" fill="none" xmlns="http://www.w3.org/2000/svg" height="1em" width="1em">
  <path d="M8 2C6.60015 2 5.58306 2.56722 4.92552 3.37088C4.39818 4.01541 4.11434 4.79571 4.02844 5.5236C1.96544 5.73497 1 7.3222 1 8.5C1 9.07262 1.14196 9.83225 1.68621 10.4543C2.24239 11.0899 3.14626 11.5 4.5 11.5H5.14494C5.05064 11.1831 5 10.8475 5 10.5C5 8.567 6.567 7 8.5 7H12.5C13.4567 7 14.3238 7.38385 14.9555 8.00594C14.8239 7.28912 14.4113 6.70186 13.8681 6.28237C13.3343 5.87019 12.6665 5.61114 11.9777 5.52863C11.8653 4.3692 11.3396 3.50685 10.6291 2.92552C9.84106 2.28075 8.85003 2 8 2ZM8.5 8C7.11929 8 6 9.11929 6 10.5C6 11.8807 7.11929 13 8.5 13H9C9.27614 13 9.5 12.7761 9.5 12.5C9.5 12.2239 9.27614 12 9 12H8.5C7.67157 12 7 11.3284 7 10.5C7 9.67157 7.67157 9 8.5 9H9C9.27614 9 9.5 8.77614 9.5 8.5C9.5 8.22386 9.27614 8 9 8H8.5ZM12 8C11.7239 8 11.5 8.22386 11.5 8.5C11.5 8.77614 11.7239 9 12 9H12.5C13.3284 9 14 9.67157 14 10.5C14 11.3284 13.3284 12 12.5 12H12C11.7239 12 11.5 12.2239 11.5 12.5C11.5 12.7761 11.7239 13 12 13H12.5C13.8807 13 15 11.8807 15 10.5C15 9.11929 13.8807 8 12.5 8H12ZM8.5 10C8.22386 10 8 10.2239 8 10.5C8 10.7761 8.22386 11 8.5 11H12.5C12.7761 11 13 10.7761 13 10.5C13 10.2239 12.7761 10 12.5 10H8.5Z" fill="#212121"/>
</svg>

<svg viewBox="0 0 16 16" fill="none" xmlns="http://www.w3.org/2000/svg" height="1em" width="1em">
  <path d="M8 2c-1.4 0-2.417.567-3.074 1.37a4.204 4.204 0 0 0-.898 2.154C1.965 5.735 1 7.322 1 8.5c0 .573.142 1.332.686 1.954.556.636 1.46 1.046 2.814 1.046h.645A3.5 3.5 0 0 1 8.5 7h4a3.49 3.49 0 0 1 2.456 1.006c-.132-.717-.545-1.304-1.088-1.724a3.865 3.865 0 0 0-1.89-.753c-.113-1.16-.638-2.022-1.349-2.603C9.841 2.28 8.85 2 8 2Zm.5 6a2.5 2.5 0 0 0 0 5H9a.5.5 0 0 0 0-1h-.5a1.5 1.5 0 0 1 0-3H9a.5.5 0 0 0 0-1h-.5ZM12 8a.5.5 0 0 0 0 1h.5a1.5 1.5 0 0 1 0 3H12a.5.5 0 0 0 0 1h.5a2.5 2.5 0 0 0 0-5H12Zm-3.5 2a.5.5 0 0 0 0 1h4a.5.5 0 0 0 0-1h-4Z" fill="#212121"/>
</svg>
